packages/ui-solid/icons/chevron_vertical_20.svg

<svg width="20" height="20" viewBox="0 0 20 20" fill="none" xmlns="http://www.w3.org/2000/svg">
<path fill-rule="evenodd" clip-rule="evenodd" d="M9.37407 2.35331C9.72302 2.01556 10.277 2.01556 10.6259 2.35331L15.1259 6.70886C15.4831 7.05456 15.4924 7.62433 15.1467 7.98149C14.801 8.33864 14.2312 8.34794 13.8741 8.00224L10 4.25253L6.12594 8.00224C5.76878 8.34794 5.19901 8.33864 4.85332 7.98149C4.50762 7.62433 4.51692 7.05456 4.87407 6.70886L9.37407 2.35331ZM4.85332 12.0185C5.19901 11.6614 5.76878 11.6521 6.12594 11.9978L10 15.7475L13.8741 11.9978C14.2312 11.6521 14.801 11.6614 15.1467 12.0185C15.4924 12.3757 15.4831 12.9454 15.1259 13.2911L10.6259 17.6467C10.277 17.9844 9.72302 17.9844 9.37407 17.6467L4.87407 13.2911C4.51692 12.9454 4.50762 12.3757 4.85332 12.0185Z" fill="#007AFF"/>
</svg>

<svg xmlns="http://www.w3.org/2000/svg" width="20" height="20" fill="none"><path fill="currentColor" fill-rule="evenodd" d="M9.374 2.353a.9.9 0 0 1 1.252 0l4.5 4.356a.9.9 0 1 1-1.252 1.293L10 4.252l-3.874 3.75A.9.9 0 1 1 4.874 6.71zm-4.52 9.665a.9.9 0 0 1 1.272-.02L10 15.748l3.874-3.75a.9.9 0 1 1 1.252 1.293l-4.5 4.356a.9.9 0 0 1-1.252 0l-4.5-4.356a.9.9 0 0 1-.02-1.273" clip-rule="evenodd"/></svg>
